X: 35706
T: Saint Bernard's
R: waltz
M: 3/4
K: Dmajor
d2e2|f6|d6|A2z2^A2|B2z2=A2|f6|a6|g6-|g2z4|
g6|e6|c6|B6|A2c2e2|a2^g2=g2|f2=f2^f2|e2c2A2|
f6|d6|A2z2^A2|B2z2=A2|F6|A4^A2|B6-|B2B2c2|
d2c2B2|d2c2B2|=A2d2f2|a4g2|f6|e6|d2A2B2|c2d2e2||
f4a2|e4a2|d2z2D2|D2z4|A4B2|G4A2|F6|A2B2c2|
d6|d2c2B2|A4G2|E6|A4G2|E6|B4^A2|=A2d2e2|
f4a2|e4a2|d2z2D2|D2z4|d2d2d2|d2c2=c2|B6-|B2B2^c2|
d2c2B2|d2c2B2|A2d2f2|a4g2|f6|e6|d6-|d2||

